X:1

T:Dewy Morning, The

M:3/4

L:1/8

R:Air

N:”Andante”

S:Stanford/Petrie (1905), No. 454

Z:AK/Fiddler’s Companion

K:Fmin

C/=E/ FF/G/ | B>A GE/F/ AB/d/ | cF FE/F/ A{A}c | B>A GA/G/ FF |

E3 C/=E/ FF/G/ | B>A GE/F/ AB/d/ | cF FE/F/ Ac | B>A GA/G/ FF | F3 ||

(A/B/) c=d/=e/ | f2 ee/d/ cd/f/ | e2 GA/B/ cc | B>A GA/G/ FF | E3 (C/=E/) FF/G/ |

BA GE/F/ AB/d/ | cF FE/F/ Ac | B>A GA/G/ FF | F3 ||

 

DH' FHAG THU MI FO BHRON. AKA and see "Thou Hast Left Me Melancholy."

 

DHÁ ÉAN AR AN CRANN. AKA and see "Two Birds in the Tree."

 

DHÁ PHORT. AKA and see “Lil’s Fancy.” Irish, Polka. D Major. Standard tuning. AABB. Source for notated version: set dance music recorded at Na Píobairí Uilleann, mid-1980’s [Taylor]. Taylor (Music for the Sets: Yellow Book), 1995; pg. 34.

 

DHOCHTUIR DHILIS, A. AKA and see "Uair beg/bheag roimh a' la."

 

DHOMHNUILL, A; A DHOMHNUILL. Scottish, Reel. G Major. Standard tuning. AAB. Stewart-Robertson (The Athole Collection), 1884; pg. 161.

